lib/assets/icons/svg/outlined-action-list.svg

<svg viewBox="0 0 24 24" xmlns="http://www.w3.org/2000/svg">
  <path  d="M 20 11 L 4 11 C 3.448 11 3 10.552 3 10 L 3 4 C 3 3.448 3.448 3 4 3 L 20 3 C 20.552 3 21 3.448 21 4 L 21 10 C 21 10.552 20.552 11 20 11 Z M 4 4 L 4 10 L 20 10 L 20 4 Z M 20 21 L 4 21 C 3.448 21 3 20.552 3 20 L 3 14 C 3 13.448 3.448 13 4 13 L 20 13 C 20.552 13 21 13.448 21 14 L 21 20 C 21 20.552 20.552 21 20 21 Z M 4 14 L 4 20 L 20 20 L 20 14 Z"/>
</svg>

<svg xmlns="http://www.w3.org/2000/svg" viewBox="0 0 24 24"><path d="M20 11H4a1 1 0 0 1-1-1V4a1 1 0 0 1 1-1h16a1 1 0 0 1 1 1v6a1 1 0 0 1-1 1zM4 4v6h16V4zm16 17H4a1 1 0 0 1-1-1v-6a1 1 0 0 1 1-1h16a1 1 0 0 1 1 1v6a1 1 0 0 1-1 1zM4 14v6h16v-6z"/></svg>
